X:1
T:The Monymustk Lads
M:9/8
L:1/8
K:C
 z2 B| c2 A B2 G| A2 G E2 G| c2 c B2 G| A3 z2 B| c2 c B2 c| AAG EFG|\
 A2 A G2 E|
M:3/8
 D3|
M:9/8
 C2 D E2 A ECD| E2 c d2 B A3| A3 z2 z||
